X: 410
T: Bluegrass Stomp
C:Bill Monroe
B: jims roots
M:4/4
L:1/8
Q: 1/4=100
K:D
V:1 
%Q:420
xD {=F}^FA |: "D"d2cd AD2D | ddcd AD2D | d2cd ADED | "D7"{=F}^FA{=F}(ED D)DED |
"G"{E}[=F2A]{E}[F2A] [F/A]E/D3 | D[=F/A]E/D2 EDBA | "D"E/=F/E/D (3CCC B,B, _B,B, | (3A,A,A, A,A,2 ABe |
"A"{=c}^cefe {=c}BAE | {=F}^FABA {=F}EDB,A, |"D" D2DD {=F}^FABA | {c}(3ddd d2 d4 ||
"D"aa^ga fdfg | aa^ga {=f}^fdfg | aa^ga fd2d |"D7"=c[c2f][cf] [c3f]z |
"G"ddcd {_B}=BG2ze | ddcd edBA | "D"zAFF zADD | zDB,A,2 ABA |
"A"{=c}^cefe cBA=F | {=F}^FABA {=F}EDB,A, | "D"D2DD {=F}^FABA | ([c=f][d^f]) [d^f] [d2^f] [d2^f]A||
"D"(3[Ad][Ad][Ad] (3[Ad][Ad][Ad] (3[Ad][Ad][Ad] (3[Ad][Ad][Ad] | (3[fd][fd][fd] (3[fd][fd][fd] (3[fd][fd][fd] (3[fd][fd][fd] | (3[fa][fa][fa] (3[fa][fa][fa] (3[fa][fa][fa] (3A^G=G | "D7"(3[F=C][FC][FC] (3[FC][FC][FC] (3[FC][FC][FC] (3[FC][FC][FC] |
"G"(3[BG][BG][BG] (3[BG][BG][BG] (3[BG][BG][BG] (3[BG][BG][BG] | (3[Bd][Bd][Bd] (3[Bd][Bd][Bd] (3[Bd][Bd][Bd] (3[Bd][Bd][Bd] | "D"(3[Ad][Ad][Ad] (3[Ad][Ad][Ad] (3[Ad]^G=G (3[DF][DF][DF]| (3[DF][DF][DF] (3[DF][DF][DF] (3[DF][DF][DF] [D2F][D2F] |
"A"{=G}[Ac][A2c][Ac] [A2c][A2c] | [A2c][A2c][Ac][Ac][A2c] | "D"{=F}^FABA =FEDB, | D2B,D _B,D A,2 ||
% abcbook-tune_id 6298c2454d0767bc8d62e14b


% abcbook-boost 0
% abcbook-tablature 
% abcbook-transpose 
% abcbook-lastupdated 1654178373412
% abcbook-soundfonts 
% abcbook-repeats 1


